X: 1
T: Furry Flats
C: Robin Laesk
N: Robin Laesk (guitarist in the band Corran Raa)
O: as played by Hanneke Cassel
R: jig
Z: 2016 John Chambers <jc:trillian.mit.edu>
M: 6/8
L: 1/8
K: D
|:\
"D" A3 DEF | "Em"G2A d2c | "F#m"A3 DEA | "G"G2F AFD |\
"D" A3 BAF | "Em"G2A d2c | "Bm"d2c A2F |1 "G"B2A Bcd :|2 "G"B3- B2c |]
|:\
"Bm"d2c A2D | "G"B2A Bcd | "D"f2e d2B | "A"e3- ede |\
"Bm"d2c A2D | "G"B2A Bcd | "Em"G2F AFD |1 "A"E3- E2D :|2 "A"E6 |]
